X:1

T:Rob Roy’s Cave (Loch Lomond)

M:C

L:1/8

R:Strathspey

N:”Slowly”

C:Nathaniel Gow (1763-1831)

B:Gow – Sixth Collection of Strathspey Reels (1822)

Z:AK/Fiddler’s Companion

K:Emin

^d|e<E E>F ~G>AB^c|d>d (e/d/)(^c/B/) AF Dg/f/|e<E “tr”E>F G>A Be/f/|(g/b/)(a/g/) (f/g/a/).b/ ge eg/f/|

(e<E) ~E>F G>A B^c|d>d (e/d/)(^c/B/) (A/d/)A/F/ DB/A/|(G/F/E/).B/ (A/G/F/).c (B/A/G/).e/ (^d/^c/B/).a/|

(g/e/)(B/b/) a/>f/b>f/ gee||e/f/|g>bf>a gee a/g/|fd AF (D/F/)A/d/ (F/A/)d/f/|(g>b) f>a gee (g/f/)|eE ~E>F G>A Be/f/|

.g/(b/a/g/) .f/(a/g/f/) gee (a/g/)|f/(d/^c/).d/ (A/d/)(F/A/) (D/F/).A/.d/ f/g/a/f/|g/b/a/g/ f/a/g/f/ e/g/f/e/ ^d/e/f/d/|eE ~E>F ~G>A B||

 

ROB ROY’S MARCH. AKA and see “MacGregor’s March,” “Maurice O’Keeffe’s [5]," “Kit White’s No. 2.”

                       

ROB RUACH MACGHRIOGAIR. AKA and see "Rob Roy to the Heiress," "Come Awa', Lady Fair."

                       

ROB SHORE IN HARVEST. Scottish, Country Dance Tune (3/2 time). The melody, written in the old hornpipe metre, appears in the Drummond Castle Manuscript (in the possession of the Earl of Ancaster at Drummond Castle), inscribed "A Collection of Country Dances written for the use of his Grace the Duke of Perth by Dav. Young, 1734."

                       

ROBAIDH DONA GORACH. See "Robie Donua Gorach."

                       

ROBB DONN MACKAY THE POET. AKA ‑ "Rob Donn." Scottish, Air (4/4 time). D Minor. Standard tuning. AB. This tune "is avowedly Robert Donn's, the words passionately describing disappointed love, and jealousy at the success of his competitor. The three first notes of the second measure, imitating a sneering laugh at his own folly, for trusting so much to the faith of womankind, it a preferable match offers" (Fraser). Fraser (The Airs and Melodies Peculiar to the Highlands of Scotland and the Isles), 1874; No. 24, pg. 8.

